public/icons/hugeicons-clean.svg

<svg width="24" height="24" viewBox="0 0 24 24" fill="none" xmlns="http://www.w3.org/2000/svg">
<path d="M21 3L13 11.5M9.446 11.085C6.966 12.037 4.983 11.874 3 11.088C3.5 17.531 6.504 20.008 10.509 21C10.509 21 13.526 18.866 13.961 13.807C14.008 13.259 14.031 12.986 13.918 12.677C13.804 12.368 13.58 12.147 13.133 11.704C12.397 10.976 12.03 10.612 11.593 10.52C11.156 10.43 10.586 10.648 9.446 11.085Z" stroke="currentColor" stroke-width="2" stroke-linecap="round" stroke-linejoin="round" fill="currentColor"/>
<path d="M4.5 16.446C4.5 16.446 7 16.93 9.5 15" stroke="currentColor" stroke-width="2" stroke-linecap="round" stroke-linejoin="round" fill="currentColor"/>
<path d="M8.5 7.25C8.5 7.58152 8.3683 7.89946 8.13388 8.13388C7.89946 8.3683 7.58152 8.5 7.25 8.5C6.91848 8.5 6.60054 8.3683 6.36612 8.13388C6.1317 7.89946 6 7.58152 6 7.25C6 6.91848 6.1317 6.60054 6.36612 6.36612C6.60054 6.1317 6.91848 6 7.25 6C7.58152 6 7.89946 6.1317 8.13388 6.36612C8.3683 6.60054 8.5 6.91848 8.5 7.25Z" stroke="currentColor" stroke-width="2" stroke-linecap="round" stroke-linejoin="round" fill="currentColor"/>
<path d="M11 4V4.1" stroke="currentColor" stroke-width="2" stroke-linecap="round" stroke-linejoin="round" fill="currentColor"/>
</svg>

<svg xmlns="http://www.w3.org/2000/svg" fill="none" viewBox="0 0 24 24"><path stroke="currentColor" stroke-linecap="round" stroke-linejoin="round" stroke-width="2" d="m21 3-8 8.5m-3.55-.41a8.3 8.3 0 0 1-6.45 0C3.5 17.53 6.5 20 10.5 21c0 0 3.03-2.13 3.46-7.2.05-.54.07-.81-.04-1.12s-.34-.53-.79-.98c-.73-.72-1.1-1.09-1.54-1.18s-1 .13-2.14.57"/><path stroke="currentColor" stroke-linecap="round" stroke-linejoin="round" stroke-width="2" d="M4.5 16.45s2.5.48 5-1.45M8.5 7.25a1.25 1.25 0 1 1-2.5 0 1.25 1.25 0 0 1 2.5 0M11 4v.1"/></svg>
